X: 5500
T: Bunny's Hat, The
R: reel
M: 4/4
K: Bminor
|:FABF cBAF|BcdB fedB|FABF AAAF|EF F/F/F ABBB|
FABF cBAF|BcdB fedB|FABd cAAA|fdec BB B2:|
|:FBde ffff|efff edBA|FBde efff|edBA BBB2|
FBde ffff|afff bafe|dBBB cAAA|fdec BBB2:|

